images/EXPORTS/BORDERS/COLOR-WAVE.svg

<svg width="360" height="216" viewBox="0 0 360 216" fill="none" xmlns="http://www.w3.org/2000/svg">
<path fill-rule="evenodd" clip-rule="evenodd" d="M-110.059 65.8437L-83.5788 70.1218C-57.0983 74.4 -4.13734 82.9564 47.6458 75.9091C99.4289 68.8617 150.034 46.2106 202.76 51.6462C255.485 57.0819 310.33 90.6043 362.349 86.6777C414.368 82.7511 463.56 41.3754 488.156 20.6876L512.751 -0.000213385L525.472 168.52L499.463 170.484C473.454 172.447 421.435 176.374 369.416 180.3C317.397 184.227 265.379 188.153 213.36 192.08C161.341 196.007 109.323 199.933 57.3041 203.86C5.28542 207.786 -46.7333 211.713 -72.7426 213.676L-98.7519 215.64L-110.059 65.8437Z" fill="url(#paint0_linear_196_534)"/>
<defs>
<linearGradient id="paint0_linear_196_534" x1="4.576" y1="149.675" x2="360.148" y2="136.683" gradientUnits="userSpaceOnUse">
<stop stop-color="#1723FF"/>
<stop offset="1" stop-color="#30E35E"/>
</linearGradient>
</defs>
</svg>

<svg width="360" height="216" fill="none" xmlns="http://www.w3.org/2000/svg"><path fill-rule="evenodd" clip-rule="evenodd" d="m-110.059 65.844 26.48 4.278c26.48 4.278 79.442 12.834 131.225 5.787S150.034 46.211 202.76 51.646c52.725 5.436 107.57 38.958 159.589 35.032 52.019-3.927 101.211-45.303 125.807-65.99L512.751 0l12.721 168.52-26.009 1.964-130.047 9.816-156.056 11.78-156.056 11.78-130.047 9.816-26.009 1.964-11.307-149.796Z" fill="url(#a)"/><defs><linearGradient id="a" x1="4.576" y1="149.675" x2="360.148" y2="136.683" gradientUnits="userSpaceOnUse"><stop stop-color="#1723FF"/><stop offset="1" stop-color="#30E35E"/></linearGradient></defs></svg>
